svgs/duotone/send-back.svg

<svg xmlns="http://www.w3.org/2000/svg" viewBox="0 0 640 512"><!--! Font Awesome Pro 6.6.0 by @fontawesome - https://fontawesome.com License - https://fontawesome.com/license (Commercial License) Copyright 2024 Fonticons, Inc. --><path class="fa-secondary" style="fill:var(--fa-secondary-color,inherit);opacity:var(--fa-secondary-opacity,.4);" d="M0 64C0 28.7 28.7 0 64 0L192 0c35.3 0 64 28.7 64 64l0 32 0 96c0 35.3-28.7 64-64 64l-32 0-96 0c-35.3 0-64-28.7-64-64L0 64zm64 0l0 128 128 0 0-128L64 64zM384 320c0-35.3 28.7-64 64-64l32 0 96 0c35.3 0 64 28.7 64 64l0 128c0 35.3-28.7 64-64 64l-128 0c-35.3 0-64-28.7-64-64l0-32 0-96zm64 0l0 128 128 0 0-128-128 0z"/><path class="fa-primary" style="fill:var(--fa-primary-color,inherit);opacity:var(--fa-primary-opacity,1);" d="M160 352l0-96 32 0c35.3 0 64-28.7 64-64l0-96 160 0c35.3 0 64 28.7 64 64l0 96-32 0c-35.3 0-64 28.7-64 64l0 96-160 0c-35.3 0-64-28.7-64-64z"/></svg>

<svg xmlns="http://www.w3.org/2000/svg" viewBox="0 0 640 512"><!--! Font Awesome Pro 6.4.2 by @fontawesome - https://fontawesome.com License - https://fontawesome.com/license (Commercial License) Copyright 2023 Fonticons, Inc. --><path class="fa-primary" style="fill:var(--fa-primary-color,inherit);opacity:var(--fa-primary-opacity,1);" d="M160 352V256h32c35.3 0 64-28.7 64-64V96H416c35.3 0 64 28.7 64 64v96H448c-35.3 0-64 28.7-64 64v96H224c-35.3 0-64-28.7-64-64z"/><path class="fa-secondary" style="fill:var(--fa-secondary-color,inherit);opacity:var(--fa-secondary-opacity,.4);" d="M64 64V192H192V64H64zM0 64C0 28.7 28.7 0 64 0H192c35.3 0 64 28.7 64 64V192c0 35.3-28.7 64-64 64H64c-35.3 0-64-28.7-64-64V64zM448 320V448H576V320H448zm-64 0c0-35.3 28.7-64 64-64H576c35.3 0 64 28.7 64 64V448c0 35.3-28.7 64-64 64H448c-35.3 0-64-28.7-64-64V320z"/></svg>
